X: 9
T: The Sligo Maid
R: reel
M: 4/4
L: 1/8
K: Ador
|: A2 BA (3B^cd ef | gedB AGEF | G2 (3BAG dGBG | DEGA BGdB |
A2 BA (3B^cd ef | gedB AGEG | B3G A2GE | DEGA BAA2:||
|: eaag a2ga | bgaf gfed | eggf g3e | dega bgag |
eaag a2ga | bgaf gfed | eg g2 ed (3Bcd | edgd BA A2 :||


Tune 399	Setting 399

